images/footer/yotube.svg

<svg width="38" height="27" viewBox="0 0 38 27" fill="none" xmlns="http://www.w3.org/2000/svg">
<path d="M36.8418 4.91992C36.4316 3.2793 35.1328 1.98047 33.5605 1.57031C30.6211 0.75 19 0.75 19 0.75C19 0.75 7.31055 0.75 4.37109 1.57031C2.79883 1.98047 1.5 3.2793 1.08984 4.91992C0.269531 7.79102 0.269531 13.9434 0.269531 13.9434C0.269531 13.9434 0.269531 20.0273 1.08984 22.9668C1.5 24.6074 2.79883 25.8379 4.37109 26.248C7.31055 27 19 27 19 27C19 27 30.6211 27 33.5605 26.248C35.1328 25.8379 36.4316 24.6074 36.8418 22.9668C37.6621 20.0273 37.6621 13.9434 37.6621 13.9434C37.6621 13.9434 37.6621 7.79102 36.8418 4.91992ZM15.1719 19.4805V8.40625L24.8789 13.9434L15.1719 19.4805Z" fill="white"/>
</svg>

<svg xmlns="http://www.w3.org/2000/svg" fill="none" viewBox="0 0 38 27"><path fill="#fff" d="M36.842 4.92c-.41-1.64-1.71-2.94-3.282-3.35C30.621.75 19 .75 19 .75s-11.69 0-14.629.82C2.8 1.98 1.5 3.28 1.09 4.92.27 7.79.27 13.943.27 13.943s0 6.084.82 9.024c.41 1.64 1.709 2.87 3.281 3.281C7.311 27 19 27 19 27s11.621 0 14.56-.752c1.573-.41 2.872-1.64 3.282-3.281.82-2.94.82-9.024.82-9.024s0-6.152-.82-9.023Zm-21.67 14.56V8.406l9.707 5.537-9.707 5.537Z"/></svg>
